X: 13251
T: St Martin's Church Yd
T: Saint Martin's Church Yard
C: James Oswald
%R: air, waltz, jig
B: James Oswald "The Caledonian Pocket Companion" v.1 b.3 p.25 #1 (top 4 staffs continued from p.24)
S: https://ia800501.us.archive.org/18/items/caledonianpocket01rugg/caledonianpocket01rugg_bw.pdf
Z: 2020 John Chambers <jc:trillian.mit.edu>
M: 3/4
L: 1/8
K: Gm
"_Slow"B>c |\
d2 (b>g) (f/d/B) | Tc4 B>c | d3 c (B/G/F) | G4 :: d>f |\
g2 (b<g) f>d | f3 d (Tc>B) | c>d b2 Ta2 | g4 (b>a) |\
g4 (b/g/f/d/) | Tc4 B>c |
d3 c (B/G/F) | G2 (g>d)(f>c) |\
d3 c (B/G/F) | G4 :| [M:6/8] |: "_All^o moder^to"(B/c/) |\
(.d.d.d) (.d.d.d) | g(.c.c) (.c.c.c) | f.B.B A(dc) | BGG GBc |
(.d.d.d) (.d.d.d) | gcc cde | Td>cB BcA | G3 z2 :: (g/^f/) |\
(.g.g.g) gdd | ecc cde | (.f.f.f) fcc | dAA Bga |
bGG Fff | eDD Dfe | Td>cB BcA | B3 z2d/=e/ |\
(.f.f.f) (.f.f.f) | (.^f.f)(.f .f)(.f.f) | gab abg | ^fga dba |\
bdd caa |
acc Bgg | gBB Aff | fAA Gbg |\
^fdg gaf | g6- | gGG Fff | eEE Dfe |\
Td>cB BcA | G3 z2 :|
